(Generated by PartKam Version 0.05)

G20 G90 G40

(profile 1)
G0 Z0.1
T0 M6
G17
M3
G0 X4.1028 Y-5.9667
G1 Z-0.1 F30
G2 X4.0553 Y-6.2049 I-0.6213 J0 F20
G2 X3.9201 Y-6.4069 I-0.5751 J0.2387
G2 X3.7182 Y-6.5416 I-0.4405 J0.4413
G2 X3.4806 Y-6.5889 I-0.2377 J0.5737
G1 X3.0694 Y-6.5889
G2 X2.9444 Y-6.4639 I0 J0.125
G1 X2.9444 Y-5.6759
G1 X2.9444 Y-4.9259
G1 X2.9444 Y-3.8431
G1 X1.6986 Y-3.8431
G1 X1.6986 Y-4.7028
G2 X1.5736 Y-4.8278 I-0.125 J0
G1 X1.1306 Y-4.8278
G2 X0.8924 Y-4.7803 I0 J0.6213
G2 X0.6903 Y-4.6451 I0.2387 J0.5751
G2 X0.5556 Y-4.4432 I0.4413 J0.4405
G2 X0.5083 Y-4.2056 I0.5737 J0.2377
G1 X0.5083 Y-3.6882
G1 X0.5083 Y-3.1694
G1 X0.5083 Y-2.8233
G1 X0.5083 Y-2.1292
G2 X0.5092 Y-2.0733 I1.7952 J0
G2 X0.6452 Y-1.4416 I1.7943 J-0.0559
G2 X1.0352 Y-0.8583 I1.6615 J-0.6889
G2 X1.6185 Y-0.4687 I1.2721 J-1.2728
G2 X2.3056 Y-0.3319 I0.6871 J-1.6582
G2 X2.9924 Y-0.4687 I0 J-1.7926
G2 X3.5759 Y-0.8588 I-0.6901 J-1.6637
G2 X3.966 Y-1.4423 I-1.2736 J-1.2736
G2 X4.1028 Y-2.1292 I-1.6558 J-0.6868
G1 X4.1028 Y-2.844
G1 X4.1028 Y-3.594
G1 X4.1028 Y-5.9667
G1 Z-0.2 F30
G2 X4.0553 Y-6.2049 I-0.6213 J0 F20
G2 X3.9201 Y-6.4069 I-0.5751 J0.2387
G2 X3.7182 Y-6.5416 I-0.4405 J0.4413
G2 X3.4806 Y-6.5889 I-0.2377 J0.5737
G1 X3.0694 Y-6.5889
G2 X2.9444 Y-6.4639 I0 J0.125
G1 X2.9444 Y-5.6759
G1 X2.9444 Y-4.9259
G1 X2.9444 Y-3.8431
G1 X1.6986 Y-3.8431
G1 X1.6986 Y-4.7028
G2 X1.5736 Y-4.8278 I-0.125 J0
G1 X1.1306 Y-4.8278
G2 X0.8924 Y-4.7803 I0 J0.6213
G2 X0.6903 Y-4.6451 I0.2387 J0.5751
G2 X0.5556 Y-4.4432 I0.4413 J0.4405
G2 X0.5083 Y-4.2056 I0.5737 J0.2377
G1 X0.5083 Y-3.6882
G1 X0.5083 Y-3.1694
G1 X0.5083 Y-2.8233
G1 X0.5083 Y-2.1292
G2 X0.5092 Y-2.0733 I1.7952 J0
G2 X0.6452 Y-1.4416 I1.7943 J-0.0559
G2 X1.0352 Y-0.8583 I1.6615 J-0.6889
G2 X1.6185 Y-0.4687 I1.2721 J-1.2728
G2 X2.3056 Y-0.3319 I0.6871 J-1.6582
G2 X2.9924 Y-0.4687 I0 J-1.7926
G2 X3.5759 Y-0.8588 I-0.6901 J-1.6637
G2 X3.966 Y-1.4423 I-1.2736 J-1.2736
G2 X4.1028 Y-2.1292 I-1.6558 J-0.6868
G1 X4.1028 Y-2.844
G1 X4.1028 Y-3.594
G1 X4.1028 Y-5.9667
G1 Z-0.3 F30
G2 X4.0553 Y-6.2049 I-0.6213 J0 F20
G2 X3.9201 Y-6.4069 I-0.5751 J0.2387
G2 X3.7182 Y-6.5416 I-0.4405 J0.4413
G2 X3.4806 Y-6.5889 I-0.2377 J0.5737
G1 X3.0694 Y-6.5889
G2 X2.9444 Y-6.4639 I0 J0.125
G1 X2.9444 Y-5.6759
G1 X2.9444 Y-4.9259
G1 X2.9444 Y-3.8431
G1 X1.6986 Y-3.8431
G1 X1.6986 Y-4.7028
G2 X1.5736 Y-4.8278 I-0.125 J0
G1 X1.1306 Y-4.8278
G2 X0.8924 Y-4.7803 I0 J0.6213
G2 X0.6903 Y-4.6451 I0.2387 J0.5751
G2 X0.5556 Y-4.4432 I0.4413 J0.4405
G2 X0.5083 Y-4.2056 I0.5737 J0.2377
G1 X0.5083 Y-3.6882
G1 X0.5083 Y-3.1694
G1 X0.5083 Y-2.8233
G1 X0.5083 Y-2.1292
G2 X0.5092 Y-2.0733 I1.7952 J0
G2 X0.6452 Y-1.4416 I1.7943 J-0.0559
G2 X1.0352 Y-0.8583 I1.6615 J-0.6889
G2 X1.6185 Y-0.4687 I1.2721 J-1.2728
G2 X2.3056 Y-0.3319 I0.6871 J-1.6582
G2 X2.9924 Y-0.4687 I0 J-1.7926
G2 X3.5759 Y-0.8588 I-0.6901 J-1.6637
G2 X3.966 Y-1.4423 I-1.2736 J-1.2736
G2 X4.1028 Y-2.1292 I-1.6558 J-0.6868
G1 X4.1028 Y-2.844
G1 X4.1028 Y-3.594
G1 X4.1028 Y-5.9667
G1 Z-0.4 F30
G2 X4.0553 Y-6.2049 I-0.6213 J0 F20
G2 X3.9201 Y-6.4069 I-0.5751 J0.2387
G2 X3.7182 Y-6.5416 I-0.4405 J0.4413
G2 X3.4806 Y-6.5889 I-0.2377 J0.5737
G1 X3.0694 Y-6.5889
G2 X2.9444 Y-6.4639 I0 J0.125
G1 X2.9444 Y-5.6759
G1 Z-0.35 F30
G1 X2.9444 Y-4.9259 F20
G1 Z-0.4 F30
G1 X2.9444 Y-3.8431 F20
G1 X1.6986 Y-3.8431
G1 X1.6986 Y-4.7028
G2 X1.5736 Y-4.8278 I-0.125 J0
G1 X1.1306 Y-4.8278
G2 X0.8924 Y-4.7803 I0 J0.6213
G2 X0.6903 Y-4.6451 I0.2387 J0.5751
G2 X0.5556 Y-4.4432 I0.4413 J0.4405
G2 X0.5083 Y-4.2056 I0.5737 J0.2377
G1 X0.5083 Y-3.6882
G1 X0.5083 Y-3.1694
G1 X0.5083 Y-2.8233
G1 Z-0.35 F30
G1 X0.5083 Y-2.1292 F20
G2 X0.5092 Y-2.0733 I1.7952 J0
G1 Z-0.4 F30
G2 X0.6452 Y-1.4416 I1.7943 J-0.0559 F20
G2 X1.0352 Y-0.8583 I1.6615 J-0.6889
G2 X1.6185 Y-0.4687 I1.2721 J-1.2728
G2 X2.3056 Y-0.3319 I0.6871 J-1.6582
G2 X2.9924 Y-0.4687 I0 J-1.7926
G2 X3.5759 Y-0.8588 I-0.6901 J-1.6637
G2 X3.966 Y-1.4423 I-1.2736 J-1.2736
G2 X4.1028 Y-2.1292 I-1.6558 J-0.6868
G1 X4.1028 Y-2.844
G1 Z-0.35 F30
G1 X4.1028 Y-3.594 F20
G1 Z-0.4 F30
G1 X4.1028 Y-5.9667 F20
G1 Z-0.5 F30
G2 X4.0553 Y-6.2049 I-0.6213 J0 F20
G2 X3.9201 Y-6.4069 I-0.5751 J0.2387
G2 X3.7182 Y-6.5416 I-0.4405 J0.4413
G2 X3.4806 Y-6.5889 I-0.2377 J0.5737
G1 X3.0694 Y-6.5889
G2 X2.9444 Y-6.4639 I0 J0.125
G1 X2.9444 Y-5.6759
G1 Z-0.35 F30
G1 X2.9444 Y-4.9259 F20
G1 Z-0.5 F30
G1 X2.9444 Y-3.8431 F20
G1 X1.6986 Y-3.8431
G1 X1.6986 Y-4.7028
G2 X1.5736 Y-4.8278 I-0.125 J0
G1 X1.1306 Y-4.8278
G2 X0.8924 Y-4.7803 I0 J0.6213
G2 X0.6903 Y-4.6451 I0.2387 J0.5751
G2 X0.5556 Y-4.4432 I0.4413 J0.4405
G2 X0.5083 Y-4.2056 I0.5737 J0.2377
G1 X0.5083 Y-3.6882
G1 X0.5083 Y-3.1694
G1 X0.5083 Y-2.8233
G1 Z-0.35 F30
G1 X0.5083 Y-2.1292 F20
G2 X0.5092 Y-2.0733 I1.7952 J0
G1 Z-0.5 F30
G2 X0.6452 Y-1.4416 I1.7943 J-0.0559 F20
G2 X1.0352 Y-0.8583 I1.6615 J-0.6889
G2 X1.6185 Y-0.4687 I1.2721 J-1.2728
G2 X2.3056 Y-0.3319 I0.6871 J-1.6582
G2 X2.9924 Y-0.4687 I0 J-1.7926
G2 X3.5759 Y-0.8588 I-0.6901 J-1.6637
G2 X3.966 Y-1.4423 I-1.2736 J-1.2736
G2 X4.1028 Y-2.1292 I-1.6558 J-0.6868
G1 X4.1028 Y-2.844
G1 Z-0.35 F30
G1 X4.1028 Y-3.594 F20
G1 Z-0.5 F30
G1 X4.1028 Y-5.9667 F20
G1 Z-0.6 F30
G2 X4.0553 Y-6.2049 I-0.6213 J0 F20
G2 X3.9201 Y-6.4069 I-0.5751 J0.2387
G2 X3.7182 Y-6.5416 I-0.4405 J0.4413
G2 X3.4806 Y-6.5889 I-0.2377 J0.5737
G1 X3.0694 Y-6.5889
G2 X2.9444 Y-6.4639 I0 J0.125
G1 X2.9444 Y-5.6759
G1 Z-0.35 F30
G1 X2.9444 Y-4.9259 F20
G1 Z-0.6 F30
G1 X2.9444 Y-3.8431 F20
G1 X1.6986 Y-3.8431
G1 X1.6986 Y-4.7028
G2 X1.5736 Y-4.8278 I-0.125 J0
G1 X1.1306 Y-4.8278
G2 X0.8924 Y-4.7803 I0 J0.6213
G2 X0.6903 Y-4.6451 I0.2387 J0.5751
G2 X0.5556 Y-4.4432 I0.4413 J0.4405
G2 X0.5083 Y-4.2056 I0.5737 J0.2377
G1 X0.5083 Y-3.6882
G1 X0.5083 Y-3.1694
G1 X0.5083 Y-2.8233
G1 Z-0.35 F30
G1 X0.5083 Y-2.1292 F20
G2 X0.5092 Y-2.0733 I1.7952 J0
G1 Z-0.6 F30
G2 X0.6452 Y-1.4416 I1.7943 J-0.0559 F20
G2 X1.0352 Y-0.8583 I1.6615 J-0.6889
G2 X1.6185 Y-0.4687 I1.2721 J-1.2728
G2 X2.3056 Y-0.3319 I0.6871 J-1.6582
G2 X2.9924 Y-0.4687 I0 J-1.7926
G2 X3.5759 Y-0.8588 I-0.6901 J-1.6637
G2 X3.966 Y-1.4423 I-1.2736 J-1.2736
G2 X4.1028 Y-2.1292 I-1.6558 J-0.6868
G1 X4.1028 Y-2.844
G1 Z-0.35 F30
G1 X4.1028 Y-3.594 F20
G1 Z-0.6 F30
G1 X4.1028 Y-5.9667 F20

(profile 2)
G0 Z0.15
G0 X8.5472 Y-5.9667
G1 Z-0.1 F30
G2 X8.4997 Y-6.2049 I-0.6213 J0 F20
G2 X8.3645 Y-6.4069 I-0.5751 J0.2387
G2 X8.1627 Y-6.5416 I-0.4405 J0.4413
G2 X7.925 Y-6.5889 I-0.2377 J0.5737
G1 X7.5139 Y-6.5889
G2 X7.3889 Y-6.4639 I0 J0.125
G1 X7.3889 Y-5.52
G1 X7.3889 Y-4.77
G1 X7.3889 Y-3.8431
G1 X6.1431 Y-3.8431
G1 X6.1431 Y-4.7028
G2 X6.0181 Y-4.8278 I-0.125 J0
G1 X5.575 Y-4.8278
G2 X5.3368 Y-4.7803 I0 J0.6213
G2 X5.1348 Y-4.6451 I0.2387 J0.5751
G2 X5.0001 Y-4.4432 I0.4413 J0.4405
G2 X4.9528 Y-4.2056 I0.5737 J0.2377
G1 X4.9528 Y-3.6882
G1 X4.9528 Y-3.1694
G1 X4.9528 Y-3.0766
G1 X4.9528 Y-2.3266
G1 X4.9528 Y-2.1292
G2 X5.0897 Y-1.4416 I1.7952 J0
G2 X5.4797 Y-0.8583 I1.6615 J-0.6889
G2 X6.0629 Y-0.4687 I1.2721 J-1.2728
G2 X6.75 Y-0.3319 I0.6871 J-1.6582
G2 X7.4368 Y-0.4687 I0 J-1.7926
G2 X8.0203 Y-0.8588 I-0.6901 J-1.6637
G2 X8.4104 Y-1.4423 I-1.2736 J-1.2736
G2 X8.5472 Y-2.1292 I-1.6558 J-0.6868
G1 X8.5472 Y-2.883
G1 X8.5472 Y-3.633
G1 X8.5472 Y-5.9667
G1 Z-0.2 F30
G2 X8.4997 Y-6.2049 I-0.6213 J0 F20
G2 X8.3645 Y-6.4069 I-0.5751 J0.2387
G2 X8.1627 Y-6.5416 I-0.4405 J0.4413
G2 X7.925 Y-6.5889 I-0.2377 J0.5737
G1 X7.5139 Y-6.5889
G2 X7.3889 Y-6.4639 I0 J0.125
G1 X7.3889 Y-5.52
G1 X7.3889 Y-4.77
G1 X7.3889 Y-3.8431
G1 X6.1431 Y-3.8431
G1 X6.1431 Y-4.7028
G2 X6.0181 Y-4.8278 I-0.125 J0
G1 X5.575 Y-4.8278
G2 X5.3368 Y-4.7803 I0 J0.6213
G2 X5.1348 Y-4.6451 I0.2387 J0.5751
G2 X5.0001 Y-4.4432 I0.4413 J0.4405
G2 X4.9528 Y-4.2056 I0.5737 J0.2377
G1 X4.9528 Y-3.6882
G1 X4.9528 Y-3.1694
G1 X4.9528 Y-3.0766
G1 X4.9528 Y-2.3266
G1 X4.9528 Y-2.1292
G2 X5.0897 Y-1.4416 I1.7952 J0
G2 X5.4797 Y-0.8583 I1.6615 J-0.6889
G2 X6.0629 Y-0.4687 I1.2721 J-1.2728
G2 X6.75 Y-0.3319 I0.6871 J-1.6582
G2 X7.4368 Y-0.4687 I0 J-1.7926
G2 X8.0203 Y-0.8588 I-0.6901 J-1.6637
G2 X8.4104 Y-1.4423 I-1.2736 J-1.2736
G2 X8.5472 Y-2.1292 I-1.6558 J-0.6868
G1 X8.5472 Y-2.883
G1 X8.5472 Y-3.633
G1 X8.5472 Y-5.9667
G1 Z-0.3 F30
G2 X8.4997 Y-6.2049 I-0.6213 J0 F20
G2 X8.3645 Y-6.4069 I-0.5751 J0.2387
G2 X8.1627 Y-6.5416 I-0.4405 J0.4413
G2 X7.925 Y-6.5889 I-0.2377 J0.5737
G1 X7.5139 Y-6.5889
G2 X7.3889 Y-6.4639 I0 J0.125
G1 X7.3889 Y-5.52
G1 X7.3889 Y-4.77
G1 X7.3889 Y-3.8431
G1 X6.1431 Y-3.8431
G1 X6.1431 Y-4.7028
G2 X6.0181 Y-4.8278 I-0.125 J0
G1 X5.575 Y-4.8278
G2 X5.3368 Y-4.7803 I0 J0.6213
G2 X5.1348 Y-4.6451 I0.2387 J0.5751
G2 X5.0001 Y-4.4432 I0.4413 J0.4405
G2 X4.9528 Y-4.2056 I0.5737 J0.2377
G1 X4.9528 Y-3.6882
G1 X4.9528 Y-3.1694
G1 X4.9528 Y-3.0766
G1 X4.9528 Y-2.3266
G1 X4.9528 Y-2.1292
G2 X5.0897 Y-1.4416 I1.7952 J0
G2 X5.4797 Y-0.8583 I1.6615 J-0.6889
G2 X6.0629 Y-0.4687 I1.2721 J-1.2728
G2 X6.75 Y-0.3319 I0.6871 J-1.6582
G2 X7.4368 Y-0.4687 I0 J-1.7926
G2 X8.0203 Y-0.8588 I-0.6901 J-1.6637
G2 X8.4104 Y-1.4423 I-1.2736 J-1.2736
G2 X8.5472 Y-2.1292 I-1.6558 J-0.6868
G1 X8.5472 Y-2.883
G1 X8.5472 Y-3.633
G1 X8.5472 Y-5.9667
G1 Z-0.4 F30
G2 X8.4997 Y-6.2049 I-0.6213 J0 F20
G2 X8.3645 Y-6.4069 I-0.5751 J0.2387
G2 X8.1627 Y-6.5416 I-0.4405 J0.4413
G2 X7.925 Y-6.5889 I-0.2377 J0.5737
G1 X7.5139 Y-6.5889
G2 X7.3889 Y-6.4639 I0 J0.125
G1 X7.3889 Y-5.52
G1 Z-0.35 F30
G1 X7.3889 Y-4.77 F20
G1 Z-0.4 F30
G1 X7.3889 Y-3.8431 F20
G1 X6.1431 Y-3.8431
G1 X6.1431 Y-4.7028
G2 X6.0181 Y-4.8278 I-0.125 J0
G1 X5.575 Y-4.8278
G2 X5.3368 Y-4.7803 I0 J0.6213
G2 X5.1348 Y-4.6451 I0.2387 J0.5751
G2 X5.0001 Y-4.4432 I0.4413 J0.4405
G2 X4.9528 Y-4.2056 I0.5737 J0.2377
G1 X4.9528 Y-3.6882
G1 X4.9528 Y-3.1694
G1 X4.9528 Y-3.0766
G1 Z-0.35 F30
G1 X4.9528 Y-2.3266 F20
G1 Z-0.4 F30
G1 X4.9528 Y-2.1292 F20
G2 X5.0897 Y-1.4416 I1.7952 J0
G2 X5.4797 Y-0.8583 I1.6615 J-0.6889
G2 X6.0629 Y-0.4687 I1.2721 J-1.2728
G2 X6.75 Y-0.3319 I0.6871 J-1.6582
G2 X7.4368 Y-0.4687 I0 J-1.7926
G2 X8.0203 Y-0.8588 I-0.6901 J-1.6637
G2 X8.4104 Y-1.4423 I-1.2736 J-1.2736
G2 X8.5472 Y-2.1292 I-1.6558 J-0.6868
G1 X8.5472 Y-2.883
G1 Z-0.35 F30
G1 X8.5472 Y-3.633 F20
G1 Z-0.4 F30
G1 X8.5472 Y-5.9667 F20
G1 Z-0.5 F30
G2 X8.4997 Y-6.2049 I-0.6213 J0 F20
G2 X8.3645 Y-6.4069 I-0.5751 J0.2387
G2 X8.1627 Y-6.5416 I-0.4405 J0.4413
G2 X7.925 Y-6.5889 I-0.2377 J0.5737
G1 X7.5139 Y-6.5889
G2 X7.3889 Y-6.4639 I0 J0.125
G1 X7.3889 Y-5.52
G1 Z-0.35 F30
G1 X7.3889 Y-4.77 F20
G1 Z-0.5 F30
G1 X7.3889 Y-3.8431 F20
G1 X6.1431 Y-3.8431
G1 X6.1431 Y-4.7028
G2 X6.0181 Y-4.8278 I-0.125 J0
G1 X5.575 Y-4.8278
G2 X5.3368 Y-4.7803 I0 J0.6213
G2 X5.1348 Y-4.6451 I0.2387 J0.5751
G2 X5.0001 Y-4.4432 I0.4413 J0.4405
G2 X4.9528 Y-4.2056 I0.5737 J0.2377
G1 X4.9528 Y-3.6882
G1 X4.9528 Y-3.1694
G1 X4.9528 Y-3.0766
G1 Z-0.35 F30
G1 X4.9528 Y-2.3266 F20
G1 Z-0.5 F30
G1 X4.9528 Y-2.1292 F20
G2 X5.0897 Y-1.4416 I1.7952 J0
G2 X5.4797 Y-0.8583 I1.6615 J-0.6889
G2 X6.0629 Y-0.4687 I1.2721 J-1.2728
G2 X6.75 Y-0.3319 I0.6871 J-1.6582
G2 X7.4368 Y-0.4687 I0 J-1.7926
G2 X8.0203 Y-0.8588 I-0.6901 J-1.6637
G2 X8.4104 Y-1.4423 I-1.2736 J-1.2736
G2 X8.5472 Y-2.1292 I-1.6558 J-0.6868
G1 X8.5472 Y-2.883
G1 Z-0.35 F30
G1 X8.5472 Y-3.633 F20
G1 Z-0.5 F30
G1 X8.5472 Y-5.9667 F20
G1 Z-0.6 F30
G2 X8.4997 Y-6.2049 I-0.6213 J0 F20
G2 X8.3645 Y-6.4069 I-0.5751 J0.2387
G2 X8.1627 Y-6.5416 I-0.4405 J0.4413
G2 X7.925 Y-6.5889 I-0.2377 J0.5737
G1 X7.5139 Y-6.5889
G2 X7.3889 Y-6.4639 I0 J0.125
G1 X7.3889 Y-5.52
G1 Z-0.35 F30
G1 X7.3889 Y-4.77 F20
G1 Z-0.6 F30
G1 X7.3889 Y-3.8431 F20
G1 X6.1431 Y-3.8431
G1 X6.1431 Y-4.7028
G2 X6.0181 Y-4.8278 I-0.125 J0
G1 X5.575 Y-4.8278
G2 X5.3368 Y-4.7803 I0 J0.6213
G2 X5.1348 Y-4.6451 I0.2387 J0.5751
G2 X5.0001 Y-4.4432 I0.4413 J0.4405
G2 X4.9528 Y-4.2056 I0.5737 J0.2377
G1 X4.9528 Y-3.6882
G1 X4.9528 Y-3.1694
G1 X4.9528 Y-3.0766
G1 Z-0.35 F30
G1 X4.9528 Y-2.3266 F20
G1 Z-0.6 F30
G1 X4.9528 Y-2.1292 F20
G2 X5.0897 Y-1.4416 I1.7952 J0
G2 X5.4797 Y-0.8583 I1.6615 J-0.6889
G2 X6.0629 Y-0.4687 I1.2721 J-1.2728
G2 X6.75 Y-0.3319 I0.6871 J-1.6582
G2 X7.4368 Y-0.4687 I0 J-1.7926
G2 X8.0203 Y-0.8588 I-0.6901 J-1.6637
G2 X8.4104 Y-1.4423 I-1.2736 J-1.2736
G2 X8.5472 Y-2.1292 I-1.6558 J-0.6868
G1 X8.5472 Y-2.883
G1 Z-0.35 F30
G1 X8.5472 Y-3.633 F20
G1 Z-0.6 F30
G1 X8.5472 Y-5.9667 F20

(pocket 3)
G0 Z0.15
G0 X6.7776 Y-1.6084
G1 Z-0.1 F30
G3 X6.8011 Y-1.5927 I-0.0276 J0.0667 F20
G3 X6.8167 Y-1.5693 I-0.0511 J0.0511
G3 X6.8222 Y-1.5417 I-0.0667 J0.0276
G3 X6.8167 Y-1.514 I-0.0722 J0
G3 X6.8011 Y-1.4906 I-0.0667 J-0.0276
G3 X6.7776 Y-1.4749 I-0.0511 J-0.0511
G3 X6.75 Y-1.4694 I-0.0276 J-0.0667
G3 X6.7224 Y-1.4749 I0 J-0.0722
G3 X6.6989 Y-1.4906 I0.0276 J-0.0667
G3 X6.6833 Y-1.514 I0.0511 J-0.0511
G3 X6.6778 Y-1.5417 I0.0667 J-0.0276
G3 X6.6833 Y-1.5693 I0.0722 J0
G3 X6.6989 Y-1.5927 I0.0667 J0.0276
G3 X6.7224 Y-1.6084 I0.0511 J0.0511
G3 X6.75 Y-1.6139 I0.0276 J0.0667
G3 X6.7776 Y-1.6084 I0 J0.0722
G0 Z0.15
G0 X2.3566 Y-1.5927
G1 Z-0.1 F30
G3 X2.3723 Y-1.5693 I-0.0511 J0.0511 F20
G3 X2.3778 Y-1.5417 I-0.0667 J0.0276
G3 X2.3723 Y-1.514 I-0.0722 J0
G3 X2.3566 Y-1.4906 I-0.0667 J-0.0276
G3 X2.3332 Y-1.4749 I-0.0511 J-0.0511
G3 X2.3056 Y-1.4694 I-0.0276 J-0.0667
G3 X2.2779 Y-1.4749 I0 J-0.0722
G3 X2.2545 Y-1.4906 I0.0276 J-0.0667
G3 X2.2388 Y-1.514 I0.0511 J-0.0511
G3 X2.2333 Y-1.5417 I0.0667 J-0.0276
G3 X2.2388 Y-1.5693 I0.0722 J0
G3 X2.2545 Y-1.5927 I0.0667 J0.0276
G3 X2.2779 Y-1.6084 I0.0511 J0.0511
G3 X2.3056 Y-1.6139 I0.0276 J0.0667
G3 X2.3332 Y-1.6084 I0 J0.0722
G3 X2.3566 Y-1.5927 I-0.0276 J0.0667
G0 Z0.15
G0 X6.7776 Y-1.6084
G1 Z-0.2 F30
G3 X6.8011 Y-1.5927 I-0.0276 J0.0667 F20
G3 X6.8167 Y-1.5693 I-0.0511 J0.0511
G3 X6.8222 Y-1.5417 I-0.0667 J0.0276
G3 X6.8167 Y-1.514 I-0.0722 J0
G3 X6.8011 Y-1.4906 I-0.0667 J-0.0276
G3 X6.7776 Y-1.4749 I-0.0511 J-0.0511
G3 X6.75 Y-1.4694 I-0.0276 J-0.0667
G3 X6.7224 Y-1.4749 I0 J-0.0722
G3 X6.6989 Y-1.4906 I0.0276 J-0.0667
G3 X6.6833 Y-1.514 I0.0511 J-0.0511
G3 X6.6778 Y-1.5417 I0.0667 J-0.0276
G3 X6.6833 Y-1.5693 I0.0722 J0
G3 X6.6989 Y-1.5927 I0.0667 J0.0276
G3 X6.7224 Y-1.6084 I0.0511 J0.0511
G3 X6.75 Y-1.6139 I0.0276 J0.0667
G3 X6.7776 Y-1.6084 I0 J0.0722
G0 Z0.15
G0 X2.3566 Y-1.5927
G1 Z-0.2 F30
G3 X2.3723 Y-1.5693 I-0.0511 J0.0511 F20
G3 X2.3778 Y-1.5417 I-0.0667 J0.0276
G3 X2.3723 Y-1.514 I-0.0722 J0
G3 X2.3566 Y-1.4906 I-0.0667 J-0.0276
G3 X2.3332 Y-1.4749 I-0.0511 J-0.0511
G3 X2.3056 Y-1.4694 I-0.0276 J-0.0667
G3 X2.2779 Y-1.4749 I0 J-0.0722
G3 X2.2545 Y-1.4906 I0.0276 J-0.0667
G3 X2.2388 Y-1.514 I0.0511 J-0.0511
G3 X2.2333 Y-1.5417 I0.0667 J-0.0276
G3 X2.2388 Y-1.5693 I0.0722 J0
G3 X2.2545 Y-1.5927 I0.0667 J0.0276
G3 X2.2779 Y-1.6084 I0.0511 J0.0511
G3 X2.3056 Y-1.6139 I0.0276 J0.0667
G3 X2.3332 Y-1.6084 I0 J0.0722
G3 X2.3566 Y-1.5927 I-0.0276 J0.0667
G0 Z0.15
G0 X6.7776 Y-1.6084
G1 Z-0.3 F30
G3 X6.8011 Y-1.5927 I-0.0276 J0.0667 F20
G3 X6.8167 Y-1.5693 I-0.0511 J0.0511
G3 X6.8222 Y-1.5417 I-0.0667 J0.0276
G3 X6.8167 Y-1.514 I-0.0722 J0
G3 X6.8011 Y-1.4906 I-0.0667 J-0.0276
G3 X6.7776 Y-1.4749 I-0.0511 J-0.0511
G3 X6.75 Y-1.4694 I-0.0276 J-0.0667
G3 X6.7224 Y-1.4749 I0 J-0.0722
G3 X6.6989 Y-1.4906 I0.0276 J-0.0667
G3 X6.6833 Y-1.514 I0.0511 J-0.0511
G3 X6.6778 Y-1.5417 I0.0667 J-0.0276
G3 X6.6833 Y-1.5693 I0.0722 J0
G3 X6.6989 Y-1.5927 I0.0667 J0.0276
G3 X6.7224 Y-1.6084 I0.0511 J0.0511
G3 X6.75 Y-1.6139 I0.0276 J0.0667
G3 X6.7776 Y-1.6084 I0 J0.0722
G0 Z0.15
G0 X2.3566 Y-1.5927
G1 Z-0.3 F30
G3 X2.3723 Y-1.5693 I-0.0511 J0.0511 F20
G3 X2.3778 Y-1.5417 I-0.0667 J0.0276
G3 X2.3723 Y-1.514 I-0.0722 J0
G3 X2.3566 Y-1.4906 I-0.0667 J-0.0276
G3 X2.3332 Y-1.4749 I-0.0511 J-0.0511
G3 X2.3056 Y-1.4694 I-0.0276 J-0.0667
G3 X2.2779 Y-1.4749 I0 J-0.0722
G3 X2.2545 Y-1.4906 I0.0276 J-0.0667
G3 X2.2388 Y-1.514 I0.0511 J-0.0511
G3 X2.2333 Y-1.5417 I0.0667 J-0.0276
G3 X2.2388 Y-1.5693 I0.0722 J0
G3 X2.2545 Y-1.5927 I0.0667 J0.0276
G3 X2.2779 Y-1.6084 I0.0511 J0.0511
G3 X2.3056 Y-1.6139 I0.0276 J0.0667
G3 X2.3332 Y-1.6084 I0 J0.0722
G3 X2.3566 Y-1.5927 I-0.0276 J0.0667
G0 Z0.15
G0 X6.7776 Y-1.6084
G1 Z-0.4 F30
G3 X6.8011 Y-1.5927 I-0.0276 J0.0667 F20
G3 X6.8167 Y-1.5693 I-0.0511 J0.0511
G3 X6.8222 Y-1.5417 I-0.0667 J0.0276
G3 X6.8167 Y-1.514 I-0.0722 J0
G3 X6.8011 Y-1.4906 I-0.0667 J-0.0276
G3 X6.7776 Y-1.4749 I-0.0511 J-0.0511
G3 X6.75 Y-1.4694 I-0.0276 J-0.0667
G3 X6.7224 Y-1.4749 I0 J-0.0722
G3 X6.6989 Y-1.4906 I0.0276 J-0.0667
G3 X6.6833 Y-1.514 I0.0511 J-0.0511
G3 X6.6778 Y-1.5417 I0.0667 J-0.0276
G3 X6.6833 Y-1.5693 I0.0722 J0
G3 X6.6989 Y-1.5927 I0.0667 J0.0276
G3 X6.7224 Y-1.6084 I0.0511 J0.0511
G3 X6.75 Y-1.6139 I0.0276 J0.0667
G3 X6.7776 Y-1.6084 I0 J0.0722
G0 Z0.15
G0 X2.3566 Y-1.5927
G1 Z-0.4 F30
G3 X2.3723 Y-1.5693 I-0.0511 J0.0511 F20
G3 X2.3778 Y-1.5417 I-0.0667 J0.0276
G3 X2.3723 Y-1.514 I-0.0722 J0
G3 X2.3566 Y-1.4906 I-0.0667 J-0.0276
G3 X2.3332 Y-1.4749 I-0.0511 J-0.0511
G3 X2.3056 Y-1.4694 I-0.0276 J-0.0667
G3 X2.2779 Y-1.4749 I0 J-0.0722
G3 X2.2545 Y-1.4906 I0.0276 J-0.0667
G3 X2.2388 Y-1.514 I0.0511 J-0.0511
G3 X2.2333 Y-1.5417 I0.0667 J-0.0276
G3 X2.2388 Y-1.5693 I0.0722 J0
G3 X2.2545 Y-1.5927 I0.0667 J0.0276
G3 X2.2779 Y-1.6084 I0.0511 J0.0511
G3 X2.3056 Y-1.6139 I0.0276 J0.0667
G3 X2.3332 Y-1.6084 I0 J0.0722
G3 X2.3566 Y-1.5927 I-0.0276 J0.0667
G0 Z0.15
G0 X6.7776 Y-1.6084
G1 Z-0.5 F30
G3 X6.8011 Y-1.5927 I-0.0276 J0.0667 F20
G3 X6.8167 Y-1.5693 I-0.0511 J0.0511
G3 X6.8222 Y-1.5417 I-0.0667 J0.0276
G3 X6.8167 Y-1.514 I-0.0722 J0
G3 X6.8011 Y-1.4906 I-0.0667 J-0.0276
G3 X6.7776 Y-1.4749 I-0.0511 J-0.0511
G3 X6.75 Y-1.4694 I-0.0276 J-0.0667
G3 X6.7224 Y-1.4749 I0 J-0.0722
G3 X6.6989 Y-1.4906 I0.0276 J-0.0667
G3 X6.6833 Y-1.514 I0.0511 J-0.0511
G3 X6.6778 Y-1.5417 I0.0667 J-0.0276
G3 X6.6833 Y-1.5693 I0.0722 J0
G3 X6.6989 Y-1.5927 I0.0667 J0.0276
G3 X6.7224 Y-1.6084 I0.0511 J0.0511
G3 X6.75 Y-1.6139 I0.0276 J0.0667
G3 X6.7776 Y-1.6084 I0 J0.0722
G0 Z0.15
G0 X2.3566 Y-1.5927
G1 Z-0.5 F30
G3 X2.3723 Y-1.5693 I-0.0511 J0.0511 F20
G3 X2.3778 Y-1.5417 I-0.0667 J0.0276
G3 X2.3723 Y-1.514 I-0.0722 J0
G3 X2.3566 Y-1.4906 I-0.0667 J-0.0276
G3 X2.3332 Y-1.4749 I-0.0511 J-0.0511
G3 X2.3056 Y-1.4694 I-0.0276 J-0.0667
G3 X2.2779 Y-1.4749 I0 J-0.0722
G3 X2.2545 Y-1.4906 I0.0276 J-0.0667
G3 X2.2388 Y-1.514 I0.0511 J-0.0511
G3 X2.2333 Y-1.5417 I0.0667 J-0.0276
G3 X2.2388 Y-1.5693 I0.0722 J0
G3 X2.2545 Y-1.5927 I0.0667 J0.0276
G3 X2.2779 Y-1.6084 I0.0511 J0.0511
G3 X2.3056 Y-1.6139 I0.0276 J0.0667
G3 X2.3332 Y-1.6084 I0 J0.0722
G3 X2.3566 Y-1.5927 I-0.0276 J0.0667
G0 Z0.15
G0 X6.7776 Y-1.6084
G1 Z-0.6 F30
G3 X6.8011 Y-1.5927 I-0.0276 J0.0667 F20
G3 X6.8167 Y-1.5693 I-0.0511 J0.0511
G3 X6.8222 Y-1.5417 I-0.0667 J0.0276
G3 X6.8167 Y-1.514 I-0.0722 J0
G3 X6.8011 Y-1.4906 I-0.0667 J-0.0276
G3 X6.7776 Y-1.4749 I-0.0511 J-0.0511
G3 X6.75 Y-1.4694 I-0.0276 J-0.0667
G3 X6.7224 Y-1.4749 I0 J-0.0722
G3 X6.6989 Y-1.4906 I0.0276 J-0.0667
G3 X6.6833 Y-1.514 I0.0511 J-0.0511
G3 X6.6778 Y-1.5417 I0.0667 J-0.0276
G3 X6.6833 Y-1.5693 I0.0722 J0
G3 X6.6989 Y-1.5927 I0.0667 J0.0276
G3 X6.7224 Y-1.6084 I0.0511 J0.0511
G3 X6.75 Y-1.6139 I0.0276 J0.0667
G3 X6.7776 Y-1.6084 I0 J0.0722
G0 Z0.15
G0 X2.3566 Y-1.5927
G1 Z-0.6 F30
G3 X2.3723 Y-1.5693 I-0.0511 J0.0511 F20
G3 X2.3778 Y-1.5417 I-0.0667 J0.0276
G3 X2.3723 Y-1.514 I-0.0722 J0
G3 X2.3566 Y-1.4906 I-0.0667 J-0.0276
G3 X2.3332 Y-1.4749 I-0.0511 J-0.0511
G3 X2.3056 Y-1.4694 I-0.0276 J-0.0667
G3 X2.2779 Y-1.4749 I0 J-0.0722
G3 X2.2545 Y-1.4906 I0.0276 J-0.0667
G3 X2.2388 Y-1.514 I0.0511 J-0.0511
G3 X2.2333 Y-1.5417 I0.0667 J-0.0276
G3 X2.2388 Y-1.5693 I0.0722 J0
G3 X2.2545 Y-1.5927 I0.0667 J0.0276
G3 X2.2779 Y-1.6084 I0.0511 J0.0511
G3 X2.3056 Y-1.6139 I0.0276 J0.0667
G3 X2.3332 Y-1.6084 I0 J0.0722
G3 X2.3566 Y-1.5927 I-0.0276 J0.0667
G0 Z0.15
M5
M30
